!!!CDT:
!!!PTL: Il sesto libro de madrigali a sei voci
!!!PPP: Venice
!!!PPR: Angelo Gardano
!!!PDT: 1591
!!!PUB-format:
!!!RISM: M 3384
!!!rime: 380
!!!AGN: Madrigal
!!!SCT: Trm0380a
!!!SCA: Trm0380a
!!!original-voices: 6
!!!extant-voices: 3
!!!complete: N
!!!final: (E)A
!!!COM: Monte, Filippo di
!!!OTL: Viviamo, amianci, o mia gradita Jelle
**kern	**text	**kern	**text	**kern	**text
*part3	*part3	*part2	*part2	*part1	*part1
*staff3	*staff3	*staff2	*staff2	*staff1	*staff1
*I"Tenore	*	*I"Quinto	*	*I"Alto	*
*I'T	*	*I'V	*	*I'A	*
*oclefC3	*	*oclefC2	*	*oclefC2	*
*clefGv2	*	*clefG2	*	*clefG2	*
*k[]	*	*k[]	*	*k[]	*
*C:	*	*C:	*	*C:	*
*omet(C)	*	*omet(C)	*	*omet(C)	*
*M4/2	*	*M4/2	*	*M4/2	*
=1	=1	=1	=1	=1	=1
!!LO:TX:a:t=Prima parte.
0r	.	1r	.	0r	.
.	.	4r	.	.	.
.	.	4e	Vi-	.	.
.	.	2f	-via-	.	.
=2	=2	=2	=2	=2	=2
0r	.	2e	-mo,	0r	.
.	.	4r	.	.	.
.	.	4g	a-	.	.
.	.	4.cc	-mian-	.	.
.	.	8b	-ci, o	.	.
.	.	4a	mia	.	.
.	.	4g#X	gra-	.	.
=3	=3	=3	=3	=3	=3
1r	.	4a	-di-	0r	.
.	.	4f	-ta	.	.
.	.	2e	Hiel-	.	.
2r	.	2A	-le,	.	.
4f	He-	4a	He-	.	.
8e	-dra	8a	-dra	.	.
8d	sia	8gnXi	sia	.	.
=4	=4	=4	=4	=4	=4
4e	tu	2a	tu	4cc	He-
4f	che'l	.	.	8b	-dra
.	.	.	.	8a	sia
4d	ca-	4r	.	4g	tu
4e	-ro	4e	che'l	4g	che'l
4f	tron-	4cc	ca-	4a	ca-
4d	-c'ab-	4b	-ro	4b	-ro
4.f	-brac-	4a	tron-	[2cc	tron-
.	.	[4a	-c'ab-	.	.
8e	.	.	.	.	.
=5	=5	=5	=5	=5	=5
8fL	.	4a]	.	4cc]	.
8e	.	.	.	.	.
8d	.	2g	-brac-	4b	-c'ab-
8cJ	.	.	.	.	.
2d	.	.	.	2a	-brac-
.	.	4f#i	.	.	.
2G	-cia:	2g	-cia:	2b	-cia:
2r	.	2r	.	4.cc	Ba-
.	.	.	.	8b	-ciam-
=6	=6	=6	=6	=6	=6
0r	.	0r	.	4a	-ci, e i
.	.	.	.	4.b-X	ba-
.	.	.	.	8a	-ci e
.	.	.	.	4g	le
.	.	.	.	2a	lu-
.	.	.	.	4d	-sin-
.	.	.	.	4c	-ghe
=7	=7	=7	=7	=7	=7
2r	.	2r	.	2g	tac-
4r	.	4r	.	4g	-cia
4d	Chi	4g	Chi	4g	Chi
2d	non	2a	non	2f#X	non
2d	ar-	2b	ar-	2g	ar-
=8	=8	=8	=8	=8	=8
1c	-di-	2.cc	-di-	2.e	-di-
.	.	4g	-sce an-	4e	-sce an-
1G	-sce	2.g	-no-	2.c	-no-
.	.	8fL	.	4c	-ver-
.	.	8eJ	.	.	.
=9	=9	=9	=9	=9	=9
4r	.	2a	.	2A	-rar
4A	an-	.	.	.	.
4.d	-no-	4d	-ve-	4r	.
.	.	2dd	-rar	4A	le
8c	-ve-	.	.	.	.
4B	-rar	.	.	1e	stel-
4A	le	4cc	le	.	.
2B	stel-	2b	stel-	.	.
=10	=10	=10	=10	=10	=10
2A	-le.	2cc#X	-le.	1e	-le.
2r	.	2r	.	.	.
1r	.	1r	.	1r	.
=11	=11	=11	=11	=11	=11
1r	.	1r	.	1r	.
4r	.	2r	.	4r	.
4.c	Fa-	.	.	4.e	Fa-
.	.	4r	.	.	.
8B	-bro	.	.	8e	-bro
4A	sia A-	[4a	Fa-	4d	sia A-
=12	=12	=12	=12	=12	=12
4B	-mor	8a]	.	4e	-mor
.	.	8g	-bro	.	.
4d	che	4f	sia A-	4a	che
8cL	le	4e	-mor	4cc	le
8d	.	.	.	.	.
8e	.	4A	che	4cc	di-
8fJ	.	.	.	.	.
4g	.	4d	le	4b	-stem-
4g	di-	4e	di-	8aL	.
.	.	.	.	8gJ	.
4c	-stem-	4f	-stem-	4a	-pri e
4c	-pri e	[4e	-pri e	[4a	.
=13	=13	=13	=13	=13	=13
2d	sfac-	4e]	.	4a]	.
.	.	2d	sfac-	4g#i	sfac-
2e	-cia,	.	.	2a	-cia,
.	.	4c#X	-cia,	.	.
1r	.	2a	<Fa-	1r	.
.	.	4g	-bro	.	.
.	.	4a	sia A-	.	.
=14	=14	=14	=14	=14	=14
0r	.	4e	-mor	0r	.
.	.	4d	che	.	.
.	.	2a	le	.	.
.	.	4b	di-	.	.
.	.	2cc	-stem-	.	.
.	.	4a	-pri e	.	.
=15	=15	=15	=15	=15	=15
1r	.	2b-X	sfac-	1r	.
.	.	1a	-cia,>	.	.
4r	.	.	.	2r	.
4A	E	.	.	.	.
4B	che	2r	.	2e	E
4c#X	di	.	.	.	.
=16	=16	=16	=16	=16	=16
4d	due	0r	.	4f#X	che
4d	con-	.	.	4g	di
2f	-fu-	.	.	2.a	due
2e	-se u-	.	.	.	.
.	.	.	.	4a	con-
[2d	-na	.	.	4a	-fu-
.	.	.	.	4b	-se u-
=17	=17	=17	=17	=17	=17
4d]	.	1r	.	4g#X	-na
4c	ri-	.	.	2a	ri-
2B	-fac-	.	.	.	.
.	.	.	.	4g#X	-fac-
4A	-cia,	4r	.	2a	-cia
4e	<E	4e	E	.	.
4d#X	che	4f#X	che	2r	.
4e	di	4g#X	di	.	.
=18	=18	=18	=18	=18	=18
4A	due	4a	due	0r	.
4dnXi	con-	4a	con-	.	.
2c	-fu-	2cc	-fu-	.	.
4.e	-se u-	2b	-se u-	.	.
16dL	.	.	.	.	.
16cJ	.	.	.	.	.
4B	.	[2gnXi	-na	.	.
[4c	-na	.	.	.	.
=19	=19	=19	=19	=19	=19
4c]	.	4g]	.	1r	.
4d	ri-	4f	fi-	.	.
2A	-fac-	2e	-rac-	.	.
4d	-cia>	2d	-cia	4r	.
4d	Che	.	.	4f	Che
4.A	per	2r	.	4.e	per
8f	un	.	.	8a	un
=20	=20	=20	=20	=20	=20
4e	spir-	2r	.	4a	spir-
4d	-to	.	.	4g	-to
4e	sol,	4r	.	4a	sol,
4a	<Che	4a	Che	4a	<Che
4.g	per	4.e	per	4.b	per
8a	un	8cc	un	8a	un
4e	spir-	4b	spir-	4g#X	spir-
4f	-to	4a	-to	4a	-to
=21	=21	=21	=21	=21	=21
2e	sol>	2g#X	sol	2b	sol>
4d	spi-	4a	spi-	2r	.
2c	-ri e	4.cc	-ri e	.	.
.	.	.	.	1r	.
.	.	8b	fa-	.	.
4d	fa-	2a	-vel-	.	.
2e	-vel-	.	.	.	.
.	.	4g#i	.	.	.
=22	=22	=22	=22	=22	=22
4A	-le,	2a	-le,	0r	.
4d	Che	.	.	.	.
4.A	per	2r	.	.	.
8f	un	.	.	.	.
4e	spir-	1r	.	.	.
4d	-to	.	.	.	.
[2e	sol	.	.	.	.
=23	=23	=23	=23	=23	=23
2e]	.	2r	.	2g	spi-
2d	spi-	4r	.	4a	-ri e
.	.	4d	spi-	4g	fa-
4.c	-ri e	4a	-ri e	1e	-vel-
.	.	4e	fa-	.	.
8B	fa-	.	.	.	.
2A	-vel-	2a	-vel-	.	.
=24	=24	=24	=24	=24	=24
0Bl	-le.	0g#Xl	-le.	0el	-le.
=25||	=25||	=25||	=25||	=25||	=25||
!!LO:TX:a:=Seconda parte.
0r	.	2r	.	0r	.
.	.	2a	Ca-	.	.
.	.	4a	-ra	.	.
.	.	4b-X	Sal-	.	.
.	.	4gnXi	-ma-	.	.
.	.	4a	-ce	.	.
=26	=26	=26	=26	=26	=26
0r	.	4d	mia,	4r	.
.	.	4d	co-	4a	co-
.	.	4e	-me	4g#X	-me
.	.	4f	s'in-	2a	s'in-
.	.	2e	-ne-	.	.
.	.	.	.	4g#X	-ne-
.	.	2A	-sta	2a	-sta
=27	=27	=27	=27	=27	=27
1r	.	0r	.	4r	.
.	.	.	.	4.e	L'u-
.	.	.	.	8d	-na
.	.	.	.	4c	pian-
2r	.	.	.	4d	-ta
.	.	.	.	4e	ne
4r	.	.	.	4f	l'al-
[4c	L'u-	.	.	4gnXi	-tra e
=28	=28	=28	=28	=28	=28
8c]	.	0r	.	2a	so-
8B	-na	.	.	.	.
4A	pian-	.	.	.	.
4B	-ta	.	.	2g	-vra
4c	ne	.	.	.	.
4d	l'al-	.	.	2b-X	l'or-
4e	-tra e	.	.	.	.
4f	so-	.	.	2a	-no
4a	-vra	.	.	.	.
=29	=29	=29	=29	=29	=29
2g	l'or-	1r	.	0r	.
2c	-no,	.	.	.	.
1r	.	2r	.	.	.
.	.	4r	.	.	.
.	.	4a	Ver-	.	.
=30	=30	=30	=30	=30	=30
0r	.	4g	-deg-	4r	.
.	.	4f	-gia il	4a	Ver-
.	.	4e	pe-	4g	-deg-
.	.	4d	-ro e	4f	-gia il
.	.	4g	l'un	4e	pe-
.	.	4a	per	4d	-ro e
.	.	2b	l'al-	4.g	l'un
.	.	.	.	8g	per
=31	=31	=31	=31	=31	=31
1r	.	4cc	-tro è	4a	l'al-
.	.	2a	va-	4d	-tro è
.	.	.	.	2e	va-
.	.	4g#i	.	.	.
2r	.	2a	-go,	1A	-go,
2e	Ca-	2r	.	.	.
=32	=32	=32	=32	=32	=32
4e	-ra	2a	Ca-	0r	.
4f	Sal-	.	.	.	.
4c	-ma-	4f	-ra	.	.
4d	-ce	4f	Sal-	.	.
2e	mia,	4b-X	-ma-	.	.
.	.	4a	-ce	.	.
4f	co-	4a	mia,	.	.
[4e	-me	4gnXi	co-	.	.
=33	=33	=33	=33	=33	=33
4e]	.	4c	-me	1r	.
4d	s'in-	4d	s'in-	.	.
2c#X	-ne-	2e	-ne-	.	.
2c#i	-sta	2e	-sta	2r	.
2r	.	2r	.	4.e	L'u-
.	.	.	.	8f	-na
=34	=34	=34	=34	=34	=34
2r	.	0r	.	4g	pian-
.	.	.	.	4a	-ta
4r	.	.	.	4b	ne
4.cnXi	L'u-	.	.	2cc	l'al-
8B	-na	.	.	.	.
4A	pian-	.	.	4cc	-tra
4B	-ta	.	.	2r	.
4c	ne	.	.	.	.
=35	=35	=35	=35	=35	=35
4d	l'al-	0r	.	4r	.
4g	-tra e	.	.	4b	e
4c	so-	.	.	4cc	so-
4d	-vra	.	.	4g	-vra
2e	l'or-	.	.	2a	l'or-
2e	-no	.	.	2a	-no
=36	=36	=36	=36	=36	=36
4r	.	0r	.	0r	.
4a	Ver-	.	.	.	.
4g	-deg-	.	.	.	.
4f	-gia il	.	.	.	.
4e	pe-	.	.	.	.
4d	-ro e	.	.	.	.
4.g	l'un	.	.	.	.
8g	per	.	.	.	.
=37	=37	=37	=37	=37	=37
4a	l'al-	2r	.	0r	.
4d	-tro è	.	.	.	.
2e	va-	4r	.	.	.
.	.	4cc	e	.	.
2e	-go,	4.g	l'un	.	.
.	.	8cc	per	.	.
2r	.	4a	l'al-	.	.
.	.	4b-X	-tro è	.	.
=38	=38	=38	=38	=38	=38
0r	.	2a	va-	2r	.
.	.	2a	-go,	4r	.
.	.	.	.	4a	Tal
.	.	2r	.	4g	io
.	.	.	.	4e	n'an-
.	.	4r	.	4.f	-drò
.	.	4a	Tal	.	.
.	.	.	.	8e	de'
=39	=39	=39	=39	=39	=39
0r	.	4g	io	4d	tuoi
.	.	4e	n'an-	4c	co-
.	.	4.f	-drò,	4A	-lor,
.	.	.	.	4a	Tal
.	.	8f	<Tal	.	.
.	.	4e	io	4g	io
.	.	4c	n'an-	4e	n'an-
.	.	2d	-drò>	4.f	-drò
.	.	.	.	8e	de'
=40	=40	=40	=40	=40	=40
4r	.	4r	.	4d	tuoi
4e	Tal	4e	de'	4c#X	co-
4d	io	4a	tuoi	4.d	-lor
4B	n'an-	4b	co-	.	.
.	.	.	.	8g	a-
4c	-drò	4g	-lo-	[1e	-dor-
4A	de'	2cc	-ri a-	.	.
4.e	tuoi	.	.	.	.
.	.	[4b	-dor-	.	.
8d	co-	.	.	.	.
=41	=41	=41	=41	=41	=41
4c	-lo-	8b]L	.	1e]	.
.	.	8aJ	.	.	.
4A	-ri a-	2a	.	.	.
2B	-dor-	.	.	.	.
.	.	4g#i	.	.	.
4A	-no,	2a	-no,	4e	-no,
4c	Tal	.	.	4a	Tal
4d	il	2r	.	4a	il
4e	tuo	.	.	4g#X	tuo
=42	=42	=42	=42	=42	=42
4A	cor	1r	.	4a	cor
4a	de'	.	.	4e	de'
4a	miei	.	.	4f	miei
4g#X	pen-	.	.	4e	pen-
4a	-sier	4r	.	4e	-sie
4f	si	4a	Tal	2d	si
2e	ve-	4gnXi	il	.	.
.	.	4e	tuo	4c#X	ve-
=43	=43	=43	=43	=43	=43
2d	-sta,	4.a	cor,	2d	-sta,
.	.	8f	<Tal	.	.
2r	.	4g	il	2r	.
.	.	4a	tuo	.	.
2r	.	2d	cor>	4r	.
.	.	.	.	4d	Tal
4r	.	4r	.	4d	il
4a	Tal	4a	de'	4c#X	tuo
=44	=44	=44	=44	=44	=44
4f	il	4a	miei	4d	cor
4d	tuo	4a	pen-	4f	de'
4e	cor	2cc	-sier	4g	miei
4A	de'	.	.	4a	pen-
4c	miei	4cc	si	2.e	-sier
4e	pen-	4.b	ve-	.	.
4A	-sier	.	.	.	.
.	.	8a	.	.	.
4A	si	[4a	.	4d	si
=45	=45	=45	=45	=45	=45
2B	ve-	4a]	.	2e	ve-
.	.	4g#i	.	.	.
2A	-sta;	4a	-sta	2e	-sta;
.	.	2a	E	.	.
1r	.	.	.	4a	E
.	.	4a	co-	4d	co-
.	.	2b	-mun	2g	-mun
=46	=46	=46	=46	=46	=46
1r	.	2a	sia	4a	sia
.	.	.	.	4f	fra
.	.	2g#X	fra	2e	noi,
2r	.	2a	noi,	2.f#X	E
4.d	E	2r	.	.	.
.	.	.	.	4g	co-
8d	co-	.	.	.	.
=47	=47	=47	=47	=47	=47
2e	-mun	0r	.	2g	-mun
4d	sia	.	.	4fnXi	sia
4d	fra	.	.	4d	fra
4.c#X	noi	.	.	2e	noi
8d	la	.	.	.	.
4e	pen-	.	.	2a	la
4f	-na e	.	.	.	.
=48	=48	=48	=48	=48	=48
8eL	l'a-	1r	.	4.g	pen-
8dJ	.	.	.	.	.
2d	.	.	.	.	.
.	.	.	.	8f	-na e
.	.	.	.	2e	l'a-
4c#i	.	.	.	.	.
4d	-go,	4r	.	2d	-go,
2d	E	2a	E	.	.
.	.	.	.	2r	.
4G	co-	4b	co-	.	.
=49	=49	=49	=49	=49	=49
2cnXi	-mun	2cc	-mun	1r	.
4d	fra	4a	sia	.	.
4B-X	noi	4g	fra	.	.
2A	la	4a	noi	2r	.
.	.	4cc	la	.	.
2e	pen-	4b	pen-	4r	.
.	.	4cc	-na e	4a	la
=50	=50	=50	=50	=50	=50
2.d	-na e	2.a	l'a-	4f	pen-
.	.	.	.	8eL	.
.	.	.	.	8dJ	.
.	.	.	.	2a	.
4c	l'a-	4A	.	.	.
4.BnXi	.	1e	.	4g#X	-na e
.	.	.	.	2a	l'a-
8A	.	.	.	.	.
2B	.	.	.	.	.
.	.	.	.	4g#i	.
=51	=51	=51	=51	=51	=51
0Al	-go.	0el	-go.	0al	-go.
==	==	==	==	==	==
*-	*-	*-	*-	*-	*-
!!!system-decoration: [*]
!!!RDF**kern: i = editorial accidental
!!!RDF**kern: l = terminal long
!!!ENC: Emiliano Ricciardi
!!!END: 2019/08/08
!!!EED: Ricciardi, Emiliano
!!!EEV: 2019/08/08
!!!YEC: Copyright 2018 Emiliano Ricciardi, All Rights Reserved
!!!ONB: Translated from MusicXML on 2019/08/08 and edited by Craig Stuart Sapp
!!@@BEGIN:	VERSEDATA
!!@SOLERTI:	380
!!@CATALOGNUM:	Trm0380
!!@LAST_MODIFIED: 2020/07/12
!!@TITLE:		Viviamo, amianci, o mia gradita Jelle
!!@GENRE:		sonetto
!!@MANUSRC:	A<sub>3</sub>, Amz, Brn, C, F<sub>1</sub>, I<sub>4</sub>, I<sub>5</sub>, P<sub>4</sub>, Pt, R<sub>7</sub>, Ts<sub>1</sub>, V<sub>8</sub>, V<sub>13/TS1</sub>, VE<sub>1</sub>, Y
!!@PRINTSRC:	8, 9, 11, 12, 13, 15, 20, 24, 29, 33, 67, 141, 166, 169
!!@@BEGIN:	VERSES
!!@ABOUTIT:	Invita lascivamente a gli amorosi abbracciamenti una donna che con finto nome [chiama] Ielle.
!!@ABOUTEN:	He lasciviously invites to amorous embraces a lady by the ficticious name of Ielle.
!!@EDITOR:	Solerti, Angelo
!!@EDITION_TITLE: Le Rime di Torquato Tasso
!!@EDITION_LOC:	Bologna
!!@EDITION_PUB:	Romagnoli-Dall’Acqua
!!@EDITION_DATE:  1898-1902
!!@EDITION_VOL:	2
!!@EDITION_PAGE:  415
!!@TRANSLATOR:	Emiliano Ricciardi and Amyrose McCue Gill
!!@VERSE:
!!	Viviamo, amianci, o mia gradita Jelle,
!!	Edra sii tu, che 'l caro tronco abbraccia:
!!	Baciamo, e i baci e le lusinghe taccia
!!	Chi non ardisce annoverar le stelle.
!!@VERSE:
!!	Bacinsi insieme l'alme nostre anch'elle:
!!	Fabro sia Amor, che le distempri e sfaccia,
!!	E che di due confuse una rifaccia,
!!	Che per un spirto sol spiri e favelle.
!!@VERSE:
!!	Cara Salmace mia, come s'innesta
!!	L'una pianta ne l'altra e sovra l'orno
!!	Vedeggia il pero e l'un per l'altro è vago,
!!@VERSE:
!!	Tal'io n'andrò de' tuoi colori adorno,
!!	Tal il tuo cor de' miei pensier si vesta:
!!	E comun sia fra noi la penna e l'ago.
!!@TVERSE:
!!	Let us live [and] love each other, O my pleasant Jelle,
!!	May you be the ivy that embraces the dear trunk.
!!	Let us kiss, and our kisses and our sighs silence
!!	Whoever does not dare to count the stars.
!!@TVERSE:
!!	Let our souls themselves also kiss each other:
!!	May love be the blacksmith who melts down and unmakes them,
!!	And who blends the two [together], remaking [them]
!!	As one single spirit that breathes and speaks.
!!@TVERSE:
!!	My dear Salmacis, as one plant
!!	Is grafted to another and above the ash tree
!!	The pear tree turns green and the one seems lovely to the other,
!!@TVERSE:
!!	So I will go about adorned with your colors;
!!	So your heart is clothed in my thoughts,
!!	And in common between us are the pen and the needle.
!!@@END:		VERSES
!!@OTHER_CRIT_ED:
!!@ATTRIBUTION_ABOUT:	Secure
!!@DATING:
!!@DEDICATEE:
!!@COMMENTARY:
!!@@END:		VERSEDATA
!!@@BEGIN:	SETTING
!!@CATALOGNUM:	Trm0380a
!!@RIMETITLE:	Viviamo, amianci, o mia gradita Jelle
!!@SETTINGTITLE: Viviamo, amianci, o mia gradita Hielle
!!@SOLERTI:	380
!!@COMPOSER:	Monte, Filippo di
!!@PRINCEPSTITLE:	Il sesto libro de madrigali a sei voci
!!@PRINCEPSLOC:	Venetia
!!@NORMLOC:	Venice
!!@NORMPUB:	Angelo Gardano
!!@NORMPUBSHORT:	Gardano
!!@PRINCEPSPUB:	Gardano
!!@PRINCEPSYEAR:	1591
!!@PRINCEPSRISM:	M 3384
!!@REPRINTS:	
!!@OVOICES:	6
!!@EXTANTVOICES:	3
!!@PARTBOOKS:	
!!@EXTPARTBOOKS:	
!!@OCLEFS:	C2,C2,C3
!!@OMENSURATION:	C
!!@OKEYSIG:	-
!!@FINAL:	(E)A
!!@TIMPEDITOR:	Ricciardi, Emiliano
!!@NOTE:		
!!@@END:		SETTING
